svg/eraser.svg

<svg xmlns="http://www.w3.org/2000/svg" viewBox="0 0 32 32" enable-background="new 0 0 32 32"><path d="M 18.90625 4.09375 C 18.100551 4.0924706 17.267436 4.3664454 16.625 4.9375 L 16.625 4.96875 L 16.59375 5 L 4.90625 16.59375 C 3.693771 17.806229 3.7016408 19.777627 4.84375 21.0625 L 4.875 21.09375 L 4.90625 21.09375 L 10.90625 27.09375 C 12.118729 28.306229 14.090127 28.298359 15.375 27.15625 L 15.375 27.125 L 15.40625 27.09375 L 27 15.5 C 28.266648 14.233352 28.306229 12.212479 27.09375 11 L 21.09375 5 C 20.487511 4.3937605 19.711949 4.0950294 18.90625 4.09375 z M 18.875 6.125 C 19.194301 6.12372 19.493739 6.21249 19.6875 6.40625 L 25.6875 12.40625 C 26.075021 12.793771 26.127102 13.560398 25.59375 14.09375 L 20.5625 19.125 L 12.90625 11.46875 L 17.96875 6.4375 L 18 6.40625 C 18.252907 6.1964591 18.568932 6.1262264 18.875 6.125 z M 11.46875 12.90625 L 19.125 20.5625 L 14.03125 25.65625 C 14.02054 25.66575 14.01097 25.6784 14 25.6875 C 13.483247 26.116059 12.691964 26.066964 12.3125 25.6875 L 6.34375 19.75 C 6.3278292 19.732089 6.3272464 19.706131 6.3125 19.6875 C 5.9031303 19.1703 5.938453 18.374047 6.3125 18 L 11.46875 12.90625 z" color="#000" overflow="visible" enable-background="accumulate"/></svg>

<svg xmlns="http://www.w3.org/2000/svg" viewBox="0 0 32 32"><path d="M18.906 4.094c-.805-.002-1.64.272-2.28.843v.032l-.032.03L4.906 16.594c-1.212 1.212-1.204 3.184-.062 4.468l.03.032h.032l6 6c1.213 1.212 3.184 1.204 4.47.062v-.03l.03-.032L27 15.5c1.267-1.267 1.306-3.288.094-4.5l-6-6c-.606-.606-1.382-.905-2.188-.906zm-.03 2.03c.318 0 .618.088.81.282l6.002 6c.387.388.44 1.154-.094 1.688l-5.032 5.03-7.656-7.655 5.063-5.033.03-.03c.253-.21.57-.28.875-.282zm-7.407 6.782l7.655 7.656-5.094 5.094-.03.032c-.517.428-1.308.38-1.688 0L6.345 19.75c-.016-.018-.017-.044-.032-.063-.41-.517-.374-1.313 0-1.687l5.157-5.094z"/></svg>
